build/img/sprite_auto.svg

<svg xmlns="http://www.w3.org/2000/svg" xmlns:xlink="http://www.w3.org/1999/xlink"><defs>
<linearGradient id="paint0_linear" x1="16.8421" y1="1.82858" x2="52.588" y2="13.7318" gradientUnits="userSpaceOnUse">
<stop stop-color="#FFC341"/>
<stop offset="0.963542" stop-color="#FFD701"/>
</linearGradient>
<linearGradient id="paint1_linear" x1="30.6316" y1="8.02857" x2="55.5095" y2="19.0743" gradientUnits="userSpaceOnUse">
<stop stop-color="#FFC341"/>
<stop offset="0.963542" stop-color="#FFD701"/>
</linearGradient>

<pattern id="pattern0" patternContentUnits="objectBoundingBox" width="1" height="1">
<use xlink:href="#image0" transform="scale(0.0625 0.0666667)"/>
</pattern>
<image id="image0" width="16" height="15" xlink:href="data:image/png;base64,iVBORw0KGgoAAAANSUhEUgAAABAAAAAPCAMAAADarb8dAAAABGdBTUEAALGPC/xhBQAAACBjSFJNAAB6JgAAgIQAAPoAAACA6AAAdTAAAOpgAAA6mAAAF3CculE8AAAAkFBMVEUxw/wxw/wxw/wxw/wxw/wxw/wxw/wxw/wxw/wxw/wxw/wxw/wxw/wxw/wxw/wxw/wxw/wxw/wxw/wxw/wxw/wxw/wxw/wxw/wxw/wxw/wxw/wxw/wxw/wxw/wxw/wxw/wxw/wxw/wxw/wxw/wxw/wxw/wxw/wxw/wxw/wxw/wxw/wxw/wxw/wxw/wxw/wAAADbBU9ZAAAAL3RSTlMADVl9HXC2vUcBMoa8ogMGSZxBEWCtnSN3uTs1jZhFbo6sDCyRiy9yWipDhSskEDXN+OIAAAABYktHRC8j1CARAAAACXBIWXMAAAsSAAALEgHS3X78AAAAB3RJTUUH4wkMDxwc4uhYagAAAHRJREFUCNdVjtcSwjAMBE09TEihJQGTQjGm5v8/DyvYGfmetDsa6YTgGY0nHKezORYDyWW0AuLEYZqtQdn8cbvb94hcEhblAS5Hi+qEIRUt1E179kL5D5drRkduvIO24s6FAXRQ+gE8A/HCO2DxwTcUnXHDD+sJBj2QlUtPAAAAAElFTkSuQmCC"/>

<pattern id="pattern0" patternContentUnits="objectBoundingBox" width="1" height="1">
<use xlink:href="#image0" transform="scale(0.0833333 0.0555556)"/>
</pattern>
<image id="image0" width="12" height="18" xlink:href="data:image/png;base64,iVBORw0KGgoAAAANSUhEUgAAAAwAAAASCAQAAADFoPeHAAAABGdBTUEAALGPC/xhBQAAACBjSFJNAAB6JgAAgIQAAPoAAACA6AAAdTAAAOpgAAA6mAAAF3CculE8AAAAAmJLR0QAAKqNIzIAAAAJcEhZcwAACxIAAAsSAdLdfvwAAAAHdElNRQfjCQwPHBzi6FhqAAAA6ElEQVQY02XML0tDYRSA8d+92xDWlsRgE2HLb7QaBiZZVaNNsfgFNFhEjGpRhtEmiKDCiuW+isGiEwyCurQPIHoN+yNzTzvPc85JchCnLJjFs/PwAUkuJlZtKOnxZc9ByItYs+6Pkk0T9pNsxoWCUb7Vixp93XGCFZMoaBTV+lvLoU28dglqqTLohjaEti4opzqgEqsQqyrgs+hOHTRjE0v9xzHJprWMM5eGN9mYvg3vKQ7HwhEpbjyM6Cy0SAm5bflQ/9iidyHcOx2G4/A4DNjxCl7s9kQy+BGrzuQWw9O/QJyXh6vB9Av2A0BxQHU/3gAAAABJRU5ErkJggg=="/>

<pattern id="pattern0" patternContentUnits="objectBoundingBox" width="1" height="1">
<use xlink:href="#image0" transform="scale(0.0555556 0.0357143)"/>
</pattern>
<image id="image0" width="18" height="28" xlink:href="data:image/png;base64,iVBORw0KGgoAAAANSUhEUgAAABIAAAAcCAYAAABsxO8nAAABwklEQVQ4jaXVP2sUQRzG8c9trkqKgDGIWlgnIBJLOUyhhUXAFKmEvIAIFqa3EBtfQRQsBAUjIoKNhfgHvIhgcYUSEsQIQVEjKBZRkFyMxc2R4fzteYkPLMw8zzPfW3Zn9ipj9aYS7UMN+9P8ExawlpcatT5QDQAncAHHUenItvAMl/A4D4psXMUcHmE8gEjeeOrM5TdSZIV5zASLyzSD+aMLm5UcNIupHUDamkprVcbqzb1YRf8uQPATh6qY7gLZwus0Pix+bv2YLjBRAlnEKI6kazR5kSYKjATBBk5jOfOWk7cR9EcKDAfBC6wE/krKOjVcYD0IfgVet2y9wPsgOIahwB9KWadWC9tvJdcAbmMw8waTNxD0X1XxFGeC8CTeaR2H9nxP0IMnlbF68wA+iPdIL2riYIGPOk7yDvWwUev70j5rV/8DdIXtQ3tfvG/+pSU8yEFNXN4F6GKj1vc7B8F18VYo00vcaU9y0Kb0belRs1pfh79AtPbM3R4gN/A8NzpBcA7fukDWBHcegT4nWJnO4msvILiFm4F/DfeiBWWg9i8vZfNFnC8rdwOtYxLf0zWJH2Xl6J821xucSuO33Yp/AG1FXG1sG09sAAAAAElFTkSuQmCC"/>

<pattern id="pattern0" patternContentUnits="objectBoundingBox" width="1" height="1">
<use xlink:href="#image0" transform="scale(0.0588235 0.0384615)"/>
</pattern>
<image id="image0" width="17" height="26" xlink:href="data:image/png;base64,iVBORw0KGgoAAAANSUhEUgAAABEAAAAaCAYAAABRqrc5AAABzklEQVQ4jd2VO2hUQRSGv70bg0QNwoIoBEQDQdLEQiEpbEWIhZBCCystFFuxSKNgI1gK1mIjWBgUgphCfFWCjURiBLVTgyTE1Rif2c9iZ8nJbLKulvnhcM/zZ+bOnf+WVDL0AEeAYaAP6AYWgDfABDCW/GWo0Y6rL2yNt+rpOBcJzqm/QvOsOqFeV++qMxnZpZzkmPozFRfVy+rObJXb1QtqNRCdaZBsU6dSckE9lQ3ndlSdT/3v1F7Uk4H5ajbQp55V92b5i2FmFPVmCr6o/aGxrN5KtQdqV7a1xjt6WAC96aBeA9Ph4DYCleR3J2tgBnie/F0FsCkFc0Atnn6Ia1kNYDY9u4qQLLKmElAOtdXqAOaFiB/AfPK/Ap/XauxoQfIbGAWeAI+Axf8hAXiZrCVabadtrEOSJlVqEyu+k08p2AF0/gNJT3pWC2AyBbuBwTYJ9gADyZ9CPazW0o0cVzv+oieo14IUnEDdot4LySvq5jWGy+p5l2X0mVppFPepHwLRfXXEuuptUCvqsHo7rLqqHjQT6kMZ0ZL6UX2lvneliM9Z1+UmtUcdUG+o31wdS+oddSjOlWz+eZWB/cABoB/YSv0GTwOPgafA9zjwB58rtSzklNU8AAAAAElFTkSuQmCC"/>
</defs><symbol id="icon_checkmark" viewBox="0 0 71 64">
<rect x="3" y="3" width="58" height="58" rx="29" stroke="url(#paint0_linear)" stroke-width="6"/>
<path d="M18 27.88L32.1972 43L66 7" stroke="url(#paint1_linear)" stroke-width="9" stroke-linecap="round" stroke-linejoin="round"/>

</symbol><symbol id="icon_down" viewBox="0 0 17 11">
<path d="M1 1L8.5 9L16 1" stroke="#1FC0FC" stroke-width="2"/>
</symbol><symbol id="icon_facebook" viewBox="0 0 11 22">
<path d="M8.53782 4.18705H10.4V0.943455C10.0787 0.899255 8.97383 0.799805 7.68704 0.799805C5.00211 0.799805 3.16287 2.48875 3.16287 5.59296V8.44981H0.200012V12.0759H3.16287V21.1998H6.79546V12.0768H9.63848L10.0898 8.45066H6.79461V5.95251C6.79546 4.90445 7.07764 4.18705 8.53782 4.18705Z" fill="black"/>
</symbol><symbol id="icon_gps" viewBox="0 0 16 15">
<rect width="16" height="15" fill="url(#pattern0)"/>

</symbol><symbol id="icon_insta" viewBox="0 0 20 20">
<path d="M10 6.3999C8.01488 6.3999 6.40002 8.01476 6.40002 9.9999C6.40002 11.985 8.01488 13.5999 10 13.5999C11.9852 13.5999 13.6 11.985 13.6 9.9999C13.6 8.01476 11.9852 6.3999 10 6.3999Z" fill="black"/>
<path fill-rule="evenodd" clip-rule="evenodd" d="M0.400024 15.6106V4.3892C0.400024 2.18596 2.18608 0.399902 4.38932 0.399902H15.6107C17.814 0.399902 19.6 2.18596 19.6 4.3892V15.6106C19.6 17.8138 17.814 19.5999 15.6107 19.5999H4.38932C2.18608 19.5999 0.400024 17.8138 0.400024 15.6106ZM4.55995 7.96611C2.926 12.7018 7.29815 17.0739 12.0338 15.44C13.63 14.8894 14.8896 13.6299 15.4401 12.0338C17.074 7.29803 12.7019 2.92588 7.96612 4.55982C6.37002 5.11037 5.11049 6.37002 4.55995 7.96611ZM16 4.59993C16.6628 4.59993 17.2 4.06268 17.2 3.39993C17.2 2.73719 16.6628 2.19993 16 2.19993C15.3373 2.19993 14.8 2.73719 14.8 3.39993C14.8 4.06268 15.3373 4.59993 16 4.59993Z" fill="black"/>
</symbol><symbol id="icon_left" viewBox="0 0 11 18">
<path opacity="0.2" d="M10 1.5L2 9L10 16.5" stroke="#484848" stroke-width="2"/>
</symbol><symbol id="icon_marker-city" viewBox="0 0 12 18">
<rect width="12" height="18" fill="url(#pattern0)"/>

</symbol><symbol id="icon_marker-map" viewBox="0 0 18 28">
<rect width="18" height="28" fill="url(#pattern0)"/>

</symbol><symbol id="icon_play" viewBox="0 0 15 19">
  <path d="M15 9.5L0 19V0L15 9.5Z"/>
</symbol><symbol id="icon_right" viewBox="0 0 11 18">
<path opacity="0.2" d="M1 16.5L9 9L0.999999 1.5" stroke="#484848" stroke-width="2"/>
</symbol><symbol id="icon_scroll" viewBox="0 0 76 132">
<path d="M38 76V131.5" stroke="white"/>
<rect x="29" y="25" width="17" height="26" fill="url(#pattern0)"/>
<circle cx="38" cy="38" r="26.5" stroke="white"/>
<circle cx="38" cy="38" r="37.5" stroke="white" stroke-dasharray="4 4"/>

</symbol><symbol id="icon_telegram" viewBox="0 0 22 18">
<path d="M8.63262 11.8632L8.2687 16.8888C8.78938 16.8888 9.01488 16.6692 9.2853 16.4055L11.7264 14.115L16.7847 17.7519C17.7124 18.2595 18.366 17.9922 18.6163 16.914L21.9365 1.63926L21.9374 1.63836C22.2317 0.291963 21.4415 -0.234534 20.5377 0.0957645L1.02135 7.43163C-0.310594 7.93922 -0.290427 8.66822 0.794932 8.99852L5.78447 10.5222L17.3742 3.40235C17.9196 3.04775 18.4155 3.24395 18.0076 3.59855L8.63262 11.8632Z" fill="black"/>
</symbol><symbol id="icon_twitter" viewBox="0 0 24 18">
<path d="M23.0768 2.1309C22.2529 2.49228 21.3751 2.73182 20.4599 2.84812C21.4014 2.28597 22.12 1.4026 22.4578 0.337842C21.58 0.861221 20.6108 1.23091 19.5779 1.43722C18.7443 0.549686 17.5564 0 16.2604 0C13.7459 0 11.7217 2.0409 11.7217 4.54287C11.7217 4.90287 11.7521 5.24902 11.8269 5.57855C8.05108 5.3944 4.71004 3.58473 2.4656 0.827991C2.07376 1.50783 1.84392 2.28597 1.84392 3.12366C1.84392 4.69656 2.65391 6.09086 3.86128 6.89808C3.13159 6.88423 2.41576 6.67239 1.8093 6.3387C1.8093 6.35255 1.8093 6.37055 1.8093 6.38855C1.8093 8.5956 3.38359 10.4288 5.44803 10.8511C5.07834 10.9522 4.67542 11.0006 4.25727 11.0006C3.96651 11.0006 3.67297 10.984 3.39744 10.9231C3.98589 12.7217 5.65572 14.044 7.64124 14.0869C6.09602 15.2957 4.13405 16.024 2.01007 16.024C1.63761 16.024 1.28038 16.0074 0.923157 15.9617C2.93498 17.259 5.31926 17.9998 7.89047 17.9998C16.2479 17.9998 20.8171 11.0768 20.8171 5.07594C20.8171 4.87518 20.8102 4.68133 20.8005 4.48887C21.7019 3.84919 22.4592 3.05027 23.0768 2.1309Z" fill="black"/>
</symbol><symbol id="icon_up" viewBox="0 0 17 11">
<path d="M16 10L8.5 2L0.999998 10" stroke="#1FC0FC" stroke-width="2"/>
</symbol><symbol id="icon_whatsapp" viewBox="0 0 20 20">
<path d="M10.0025 0H9.9975C4.48375 0 0 4.485 0 10C0 12.1875 0.705 14.215 1.90375 15.8612L0.6575 19.5763L4.50125 18.3475C6.0825 19.395 7.96875 20 10.0025 20C15.5162 20 20 15.5138 20 10C20 4.48625 15.5162 0 10.0025 0ZM15.8212 14.1213C15.58 14.8025 14.6225 15.3675 13.8587 15.5325C13.3363 15.6437 12.6537 15.7325 10.3562 14.78C7.4175 13.5625 5.525 10.5763 5.3775 10.3825C5.23625 10.1887 4.19 8.80125 4.19 7.36625C4.19 5.93125 4.91875 5.2325 5.2125 4.9325C5.45375 4.68625 5.8525 4.57375 6.235 4.57375C6.35875 4.57375 6.47 4.58 6.57 4.585C6.86375 4.5975 7.01125 4.615 7.205 5.07875C7.44625 5.66 8.03375 7.095 8.10375 7.2425C8.175 7.39 8.24625 7.59 8.14625 7.78375C8.0525 7.98375 7.97 8.0725 7.8225 8.2425C7.675 8.4125 7.535 8.5425 7.3875 8.725C7.2525 8.88375 7.1 9.05375 7.27 9.3475C7.44 9.635 8.0275 10.5937 8.8925 11.3637C10.0087 12.3575 10.9137 12.675 11.2375 12.81C11.4787 12.91 11.7662 12.8863 11.9425 12.6988C12.1663 12.4575 12.4425 12.0575 12.7238 11.6638C12.9237 11.3813 13.1763 11.3462 13.4412 11.4462C13.7113 11.54 15.14 12.2462 15.4338 12.3925C15.7275 12.54 15.9212 12.61 15.9925 12.7338C16.0625 12.8575 16.0625 13.4388 15.8212 14.1213Z" fill="black"/>
</symbol></svg>

<svg xmlns="http://www.w3.org/2000/svg" xmlns:xlink="http://www.w3.org/1999/xlink"><defs><linearGradient id="paint0_linear" x1="16.842" y1="1.829" x2="52.588" y2="13.732" gradientUnits="userSpaceOnUse"><stop stop-color="#FFC341"/><stop offset=".964" stop-color="#FFD701"/></linearGradient><linearGradient id="paint1_linear" x1="30.632" y1="8.029" x2="55.51" y2="19.074" gradientUnits="userSpaceOnUse"><stop stop-color="#FFC341"/><stop offset=".964" stop-color="#FFD701"/></linearGradient><pattern id="pattern0" patternContentUnits="objectBoundingBox" width="1" height="1"><use xlink:href="#image0" transform="scale(.0625 .06667)"/></pattern><image id="image0" width="16" height="15" xlink:href="data:image/png;base64,iVBORw0KGgoAAAANSUhEUgAAABAAAAAPCAMAAADarb8dAAAABGdBTUEAALGPC/xhBQAAACBjSFJNAAB6JgAAgIQAAPoAAACA6AAAdTAAAOpgAAA6mAAAF3CculE8AAAAkFBMVEUxw/wxw/wxw/wxw/wxw/wxw/wxw/wxw/wxw/wxw/wxw/wxw/wxw/wxw/wxw/wxw/wxw/wxw/wxw/wxw/wxw/wxw/wxw/wxw/wxw/wxw/wxw/wxw/wxw/wxw/wxw/wxw/wxw/wxw/wxw/wxw/wxw/wxw/wxw/wxw/wxw/wxw/wxw/wxw/wxw/wxw/wxw/wAAADbBU9ZAAAAL3RSTlMADVl9HXC2vUcBMoa8ogMGSZxBEWCtnSN3uTs1jZhFbo6sDCyRiy9yWipDhSskEDXN+OIAAAABYktHRC8j1CARAAAACXBIWXMAAAsSAAALEgHS3X78AAAAB3RJTUUH4wkMDxwc4uhYagAAAHRJREFUCNdVjtcSwjAMBE09TEihJQGTQjGm5v8/DyvYGfmetDsa6YTgGY0nHKezORYDyWW0AuLEYZqtQdn8cbvb94hcEhblAS5Hi+qEIRUt1E179kL5D5drRkduvIO24s6FAXRQ+gE8A/HCO2DxwTcUnXHDD+sJBj2QlUtPAAAAAElFTkSuQmCC"/><pattern id="pattern0" patternContentUnits="objectBoundingBox" width="1" height="1"><use xlink:href="#image0" transform="scale(.08333 .05556)"/></pattern><image id="image0" width="12" height="18" xlink:href="data:image/png;base64,iVBORw0KGgoAAAANSUhEUgAAAAwAAAASCAQAAADFoPeHAAAABGdBTUEAALGPC/xhBQAAACBjSFJNAAB6JgAAgIQAAPoAAACA6AAAdTAAAOpgAAA6mAAAF3CculE8AAAAAmJLR0QAAKqNIzIAAAAJcEhZcwAACxIAAAsSAdLdfvwAAAAHdElNRQfjCQwPHBzi6FhqAAAA6ElEQVQY02XML0tDYRSA8d+92xDWlsRgE2HLb7QaBiZZVaNNsfgFNFhEjGpRhtEmiKDCiuW+isGiEwyCurQPIHoN+yNzTzvPc85JchCnLJjFs/PwAUkuJlZtKOnxZc9ByItYs+6Pkk0T9pNsxoWCUb7Vixp93XGCFZMoaBTV+lvLoU28dglqqTLohjaEti4opzqgEqsQqyrgs+hOHTRjE0v9xzHJprWMM5eGN9mYvg3vKQ7HwhEpbjyM6Cy0SAm5bflQ/9iidyHcOx2G4/A4DNjxCl7s9kQy+BGrzuQWw9O/QJyXh6vB9Av2A0BxQHU/3gAAAABJRU5ErkJggg=="/><pattern id="pattern0" patternContentUnits="objectBoundingBox" width="1" height="1"><use xlink:href="#image0" transform="scale(.05556 .03571)"/></pattern><image id="image0" width="18" height="28" xlink:href="data:image/png;base64,iVBORw0KGgoAAAANSUhEUgAAABIAAAAcCAYAAABsxO8nAAABwklEQVQ4jaXVP2sUQRzG8c9trkqKgDGIWlgnIBJLOUyhhUXAFKmEvIAIFqa3EBtfQRQsBAUjIoKNhfgHvIhgcYUSEsQIQVEjKBZRkFyMxc2R4fzteYkPLMw8zzPfW3Zn9ipj9aYS7UMN+9P8ExawlpcatT5QDQAncAHHUenItvAMl/A4D4psXMUcHmE8gEjeeOrM5TdSZIV5zASLyzSD+aMLm5UcNIupHUDamkprVcbqzb1YRf8uQPATh6qY7gLZwus0Pix+bv2YLjBRAlnEKI6kazR5kSYKjATBBk5jOfOWk7cR9EcKDAfBC6wE/krKOjVcYD0IfgVet2y9wPsgOIahwB9KWadWC9tvJdcAbmMw8waTNxD0X1XxFGeC8CTeaR2H9nxP0IMnlbF68wA+iPdIL2riYIGPOk7yDvWwUev70j5rV/8DdIXtQ3tfvG/+pSU8yEFNXN4F6GKj1vc7B8F18VYo00vcaU9y0Kb0belRs1pfh79AtPbM3R4gN/A8NzpBcA7fukDWBHcegT4nWJnO4msvILiFm4F/DfeiBWWg9i8vZfNFnC8rdwOtYxLf0zWJH2Xl6J821xucSuO33Yp/AG1FXG1sG09sAAAAAElFTkSuQmCC"/><pattern id="pattern0" patternContentUnits="objectBoundingBox" width="1" height="1"><use xlink:href="#image0" transform="scale(.05882 .03846)"/></pattern><image id="image0" width="17" height="26" xlink:href="data:image/png;base64,iVBORw0KGgoAAAANSUhEUgAAABEAAAAaCAYAAABRqrc5AAABzklEQVQ4jd2VO2hUQRSGv70bg0QNwoIoBEQDQdLEQiEpbEWIhZBCCystFFuxSKNgI1gK1mIjWBgUgphCfFWCjURiBLVTgyTE1Rif2c9iZ8nJbLKulvnhcM/zZ+bOnf+WVDL0AEeAYaAP6AYWgDfABDCW/GWo0Y6rL2yNt+rpOBcJzqm/QvOsOqFeV++qMxnZpZzkmPozFRfVy+rObJXb1QtqNRCdaZBsU6dSckE9lQ3ndlSdT/3v1F7Uk4H5ajbQp55V92b5i2FmFPVmCr6o/aGxrN5KtQdqV7a1xjt6WAC96aBeA9Ph4DYCleR3J2tgBnie/F0FsCkFc0Atnn6Ia1kNYDY9u4qQLLKmElAOtdXqAOaFiB/AfPK/Ap/XauxoQfIbGAWeAI+Axf8hAXiZrCVabadtrEOSJlVqEyu+k08p2AF0/gNJT3pWC2AyBbuBwTYJ9gADyZ9CPazW0o0cVzv+oieo14IUnEDdot4LySvq5jWGy+p5l2X0mVppFPepHwLRfXXEuuptUCvqsHo7rLqqHjQT6kMZ0ZL6UX2lvneliM9Z1+UmtUcdUG+o31wdS+oddSjOlWz+eZWB/cABoB/YSv0GTwOPgafA9zjwB58rtSzklNU8AAAAAElFTkSuQmCC"/></defs><symbol id="icon_checkmark"><rect x="3" y="3" width="58" height="58" rx="29" stroke="url(#paint0_linear)" stroke-width="6"/><path d="M18 27.88L32.197 43 66 7" stroke="url(#paint1_linear)" stroke-width="9" stroke-linecap="round" stroke-linejoin="round"/></symbol><symbol id="icon_down"><path d="M1 1l7.5 8L16 1" stroke="#1FC0FC" stroke-width="2"/></symbol><symbol id="icon_facebook"><path d="M8.538 4.187H10.4V.943A24.401 24.401 0 007.687.8C5.002.8 3.163 2.489 3.163 5.593V8.45H.2v3.626h2.963V21.2h3.632v-9.123h2.843l.452-3.626H6.795V5.953c0-1.049.283-1.766 1.743-1.766z" fill="#000"/></symbol><symbol id="icon_gps"><path fill="url(#pattern0)" d="M0 0h16v15H0z"/></symbol><symbol id="icon_insta"><path d="M10 6.4A3.604 3.604 0 006.4 10c0 1.985 1.615 3.6 3.6 3.6s3.6-1.615 3.6-3.6-1.615-3.6-3.6-3.6z" fill="#000"/><path fill-rule="evenodd" clip-rule="evenodd" d="M.4 15.61V4.39A3.99 3.99 0 014.39.4h11.22a3.99 3.99 0 013.99 3.99v11.22a3.99 3.99 0 01-3.99 3.99H4.39A3.99 3.99 0 01.4 15.61zm4.16-7.644a5.823 5.823 0 007.474 7.474 5.508 5.508 0 003.406-3.406A5.823 5.823 0 007.966 4.56 5.508 5.508 0 004.56 7.966zM16 4.6a1.2 1.2 0 100-2.4 1.2 1.2 0 000 2.4z" fill="#000"/></symbol><symbol id="icon_left"><path opacity=".2" d="M10 1.5L2 9l8 7.5" stroke="#484848" stroke-width="2"/></symbol><symbol id="icon_marker-city"><path fill="url(#pattern0)" d="M0 0h12v18H0z"/></symbol><symbol id="icon_marker-map"><path fill="url(#pattern0)" d="M0 0h18v28H0z"/></symbol><symbol id="icon_play"><path d="M15 9.5L0 19V0l15 9.5z"/></symbol><symbol id="icon_right"><path opacity=".2" d="M1 16.5L9 9 1 1.5" stroke="#484848" stroke-width="2"/></symbol><symbol id="icon_scroll"><path d="M38 76v55.5" stroke="#fff"/><path fill="url(#pattern0)" d="M29 25h17v26H29z"/><circle cx="38" cy="38" r="26.5" stroke="#fff"/><circle cx="38" cy="38" r="37.5" stroke="#fff" stroke-dasharray="4 4"/></symbol><symbol id="icon_telegram"><path d="M8.633 11.863l-.364 5.026c.52 0 .746-.22 1.016-.483l2.441-2.291 5.059 3.637c.927.508 1.581.24 1.831-.838l3.32-15.275h.001c.295-1.347-.495-1.874-1.4-1.543L1.022 7.432C-.31 7.939-.29 8.668.795 8.999l4.99 1.523 11.59-7.12c.545-.354 1.04-.158.633.197l-9.375 8.264z" fill="#000"/></symbol><symbol id="icon_twitter"><path d="M23.077 2.13a9.47 9.47 0 01-2.617.718 4.516 4.516 0 001.998-2.51 9.076 9.076 0 01-2.88 1.1 4.54 4.54 0 00-7.856 3.106c0 .359.03.705.105 1.035C8.05 5.394 4.71 3.585 2.466.828a4.573 4.573 0 00-.622 2.296c0 1.573.81 2.967 2.017 3.774a4.485 4.485 0 01-2.052-.56v.05a4.563 4.563 0 003.639 4.463c-.37.101-.773.15-1.19.15-.291 0-.585-.017-.86-.078.588 1.799 2.258 3.121 4.243 3.164a9.125 9.125 0 01-5.63 1.937c-.373 0-.73-.017-1.088-.062A12.787 12.787 0 007.89 18c8.358 0 12.927-6.923 12.927-12.924 0-.2-.007-.395-.017-.587a9.061 9.061 0 002.277-2.358z" fill="#000"/></symbol><symbol id="icon_up"><path d="M16 10L8.5 2 1 10" stroke="#1FC0FC" stroke-width="2"/></symbol><symbol id="icon_whatsapp"><path d="M10.002 0h-.005C4.485 0 0 4.485 0 10c0 2.188.705 4.215 1.904 5.861L.658 19.576 4.5 18.347A9.913 9.913 0 0010.002 20C15.517 20 20 15.514 20 10S15.516 0 10.002 0zm5.82 14.121c-.242.681-1.2 1.246-1.963 1.412-.523.11-1.205.2-3.503-.753-2.938-1.217-4.831-4.204-4.978-4.397C5.236 10.188 4.19 8.8 4.19 7.366c0-1.435.729-2.133 1.022-2.433.242-.247.64-.36 1.023-.36.124 0 .235.007.335.012.294.013.441.03.635.494.241.581.829 2.016.899 2.163.071.148.142.348.042.542-.094.2-.176.288-.324.458-.147.17-.287.3-.434.483-.135.159-.288.329-.118.623.17.287.758 1.246 1.623 2.016 1.116.993 2.02 1.311 2.345 1.446.24.1.528.076.705-.111.223-.242.5-.642.78-1.035.2-.283.453-.318.718-.218.27.094 1.699.8 1.993.947.293.147.487.217.559.34.07.124.07.706-.172 1.388z" fill="#000"/></symbol></svg>
